X: 24087
T: Long Lane, The
R: hornpipe
M: 4/4
K: Dmajor
AG|F2 FG ADFA|dcde fdef|gfgf edcd|edcB (3ABA (3FFG|
AFAB dBdf|edef geag|(3fgf df (3efe ce|1 dfec dBAG:|2 dfec de (3ffg||
a2 fa fgga|fAfa eABc|dcde fdef|gfed cefg|
(3aaa fa (3ggg eg|fAfa eABc|dcde fAgf|eAce defg|
(3aaa fa (3ggg eg|fafa eABc|dcde fAef|gfed cBAG|
FDFG ABdf|edef geag|(3fff df (3efe ce|dfec dBAG||

